X:1
T:Title
%%score ( 1 2 ) { 3 | 4 }
L:1/8
Q:1/4=90
M:4/4
K:G
V:1 treble nm="Grand Piano, Soprano"
V:2 treble 
V:3 bass nm="Choir Pad, The Bethlehem Star"
V:4 bass 
V:1
 [GB]>[GA] [DG]>[DG] [DG]>[DG] [DG]2 | z2 d6 | z2 d6 | [Gd]2 [FA]6 | %4
w: By~E.~K.~Faust * * * * * *||||
 [GB]>[GA] [DG]>[DG] [DG]>[DG] [DG]2 | z2 d6 | [DG]>[DG] [EG]2 [DG]2 [GB]2 | .F2 z2 z4 | %8
w: ||||
 D2 [DG]2 [GB]>[GA] [DG]>[DG] | [DG]>[DG] [DG]2 [GB]2 [Gd]2 | z2 B6 | z2 A6 | %12
w: ||||
 [GB]>[GA] [DG]>[DG] [DG]>[DG] [DG]2 | z2 d6 | z2 B6 | z2 G6- | G6 z2 |] %17
w: |||||
V:2
 x8 | [GB]2 G2 G2 G2 | G2 z2 G2 G2 | x8 | x8 | [GB]2 G2 F2 G2 | x8 | A-[DA] [DG]6 | x8 | x8 | %10
 G2 z2 G2 G2 | [Gd]2 F2 F2 F2 | x8 | [GB]2 G2 F2 G2 | [DG]2 G2 G2 [DG]2 | [FA]2 z2 E2 D2- | %16
 D6 z2 |] %17
V:3
 D>C B,>B, B,>B, B,2 | D2 B,2 A,2 B,2 | z4[K:treble] D2 D2 | D2 D6 | D>C[K:bass] B,>B, B,>B, B,2 | %5
 D2 B,2 A,2 B,2 | B,>B, B,2[K:treble] D2 D2 | C2 B,6 | B,2 B,2 D>C[K:bass] B,>B, | %9
 B,>B, B,2 D2 B,2 | z4[K:treble] D2 D2 | D2 D2 D2 D2 | D>C[K:bass] B,>B, B,>B, B,2 | %13
 D2 B,2 A,2 B,2 | B,2[K:treble] D2 ED B,2 | C2[K:bass] B,2 G,A, B,2- | B,6 z2 |] %17
V:4
 G,>G, G,>G, G,>G, G,2 | G,2 G,2 D,2 G,2 | z4 G,2 G,2 | B,,2 D,6 | G,>G, G,>G, G,>G, G,2 | %5
 G,2 G,2 D,2 G,2 | G,>G, E,2 B,,2 D,2 | D,2 A,,6 | G,2 G,2 G,>G, G,>G, | G,>G, G,2 G,2 G,2 | %10
 z4 G,2 G,2 | B,,2 D,2 D,2 D,2 | G,>G, G,>G, G,>G, G,2 | G,2 G,2 D,2 G,2 | G,2 G,2 E,B,, D,2 | %15
 D,2 G,,6- | G,,6 z2 |] %17

